packages/tokens/icons/availability/size24Px.svg

<svg viewBox="0 0 24 24" fill="none" xmlns="http://www.w3.org/2000/svg" width="1em" height="1em"><circle cx="9" cy="20" r="1.5" stroke="currentColor"/><circle cx="16" cy="20" r="1.5" stroke="currentColor"/><path d="M18.5 16.5H7.5C6.39543 16.5 5.5 15.6046 5.5 14.5L5.5 5.5C5.5 4.94772 5.05228 4.5 4.5 4.5H3.5" stroke="currentColor" stroke-linecap="round"/><path d="M16.5986 9.44133L16.5986 9.44131C16.6063 9.42805 16.6139 9.41483 16.6216 9.40163C16.7827 9.12362 16.9375 8.85656 16.8964 8.44002C16.8715 8.18797 16.7224 7.45621 16.5809 6.79531C16.4373 6.12435 16.285 5.4509 16.2422 5.29556C16.1771 5.05911 16.035 4.83012 15.7985 4.68073C15.5592 4.5296 15.2757 4.49287 14.9912 4.54675C14.7662 4.58936 14.0684 4.80974 13.4321 5.02026C12.7901 5.23266 12.1084 5.46914 11.9079 5.5599C11.5266 5.73256 11.3727 6.00017 11.2125 6.27874C11.2049 6.29195 11.1973 6.30519 11.1896 6.31844L8.61462 10.7784C8.34046 11.2533 8.43309 11.9196 8.9624 12.2252L12.5968 14.3235C13.1261 14.6291 13.7495 14.3762 14.0236 13.9013L16.5986 9.44133Z" stroke="currentColor"/><circle cx="14.683" cy="6.68301" r="0.25" transform="rotate(30 14.683 6.68301)" stroke="currentColor" stroke-width="0.5"/></svg>

<svg xmlns="http://www.w3.org/2000/svg" fill="none" viewBox="0 0 24 24" width="1em" height="1em"><circle cx="9" cy="20" r="1.5" stroke="currentColor"/><circle cx="16" cy="20" r="1.5" stroke="currentColor"/><path stroke="currentColor" stroke-linecap="round" d="M18.5 16.5h-11a2 2 0 0 1-2-2v-9a1 1 0 0 0-1-1h-1"/><path stroke="currentColor" d="m16.599 9.441.023-.04c.16-.277.316-.544.274-.961-.024-.252-.174-.984-.315-1.645a48.246 48.246 0 0 0-.339-1.5 1.044 1.044 0 0 0-.444-.614 1.104 1.104 0 0 0-.807-.134c-.225.042-.923.263-1.559.473-.642.213-1.324.45-1.524.54-.381.173-.535.44-.695.719l-.023.04-2.575 4.46c-.275.474-.182 1.14.347 1.446l3.635 2.098c.53.306 1.152.053 1.427-.422l2.575-4.46Z"/><circle cx="14.683" cy="6.683" r=".25" stroke="currentColor" stroke-width=".5" transform="rotate(30 14.683 6.683)"/></svg>
